; generated by PrusaSlicer 2.9.0 on 2025-04-08 at 02:54:07 UTC

; 

; external perimeters extrusion width = 0.45mm
; perimeters extrusion width = 0.45mm
; infill extrusion width = 0.45mm
; solid infill extrusion width = 0.45mm
; top infill extrusion width = 0.45mm
; first layer extrusion width = 0.42mm

;TYPE:Custom
;Custom Start G-code
M104 S260 ; set extruder temp
M140 S90 ; set bed temp
M190 S90 ; wait for bed temp
M109 S260 ; wait for extruder temp
G92 E0 ; Reset Extruder
G28 ; Home all axes
M107 ;Off Fan
G1 Z5.0 F3000 ;Move Z Axis up little to prevent scratching of Heat Bed
G1 X0.1 Y20 Z0.8 F5000 ; Move to start position
G1 X0.1 Y200.0 Z1.2 F1500 E30 ; Draw the first line
G92 E0 ; Reset Extruder
G1 X0.4 Y200.0 Z1.2 F3000 ; Move to side a little
G1 X0.4 Y20 Z1.2 F1500 E25 ; Draw the second line
G92 E0 ; Reset Extruder
G1 Z2.0 F3000 ; Move Z Axis up little to prevent scratching of Heat Bed
G1 X5 Y20 Z0.4 F3000.0 ; Move over to prevent blob squish

M221 S100
G92 E0
G21 ; set units to millimeters
G90 ; use absolute coordinates
M83 ; use relative distances for extrusion
; Filament gcode
M107
;LAYER_CHANGE
;Z:0.2
;HEIGHT:0.2
G1 E-6.5 F2700
G1 Z.2 F7800
G1 X40 Y174.811
G1 Z.2
G1 E6.5 F2400
;TYPE:External perimeter
;WIDTH:0.42
G1 F900
G1 X29.515 Y174.811 E.32875
;WIDTH:0.465403
G1 X29.228 Y174.772 E.01017
G1 X29.189 Y174.485 E.01017
;WIDTH:0.42
G1 X29.189 Y153.515 E.6575
;WIDTH:0.465403
G1 X29.228 Y153.228 E.01017
G1 X29.295 Y153.21 E.00244
;WIDTH:0.439854
G1 X29.363 Y153.192 E.00232
;WIDTH:0.42
G1 X50.481 Y153.189 E.66214
;WIDTH:0.46264
G1 X50.774 Y153.231 E.01033
G1 X50.811 Y153.515 E.01
;WIDTH:0.42
G1 X50.811 Y174.485 E.6575
;WIDTH:0.465402
G1 X50.772 Y174.772 E.01017
G1 X50.485 Y174.811 E.01017
;WIDTH:0.42
G1 X40.03 Y174.811 E.32781
G1 X39.83 Y174.811 F7800
G1 X40 Y175.188
G1 F900
G1 X29.501 Y175.188 E.32919
;WIDTH:0.465403
G1 X28.881 Y175.119 E.02191
G1 X28.811 Y174.492 E.02216
;WIDTH:0.42
G1 X28.812 Y153.501 E.65816
;WIDTH:0.465403
G1 X28.881 Y152.881 E.02191
G1 X29.508 Y152.811 E.02216
;WIDTH:0.42
G1 X50.499 Y152.812 E.65816
;WIDTH:0.46264
G1 X51.12 Y152.886 E.02183
G1 X51.189 Y153.515 E.02208
;WIDTH:0.42
G1 X51.188 Y174.499 E.65794
;WIDTH:0.465402
G1 X51.119 Y175.119 E.02191
G1 X50.492 Y175.189 E.02216
;WIDTH:0.42
G1 X40.03 Y175.188 E.32803
G1 X39.83 Y175.188 F7800
G1 X40 Y173.59
;WIDTH:0.419999
G1 F900
G1 X30.41 Y173.59 E.30069
G1 X30.41 Y154.41 E.60137
G1 X49.59 Y154.41 E.60137
G1 X49.59 Y164 E.30069
G1 X49.59 Y173.59 E.30069
G1 X40.03 Y173.59 E.29975
G1 X39.83 Y173.59 F7800
G1 X40 Y173.213
;TYPE:Perimeter
G1 F900
G1 X30.787 Y173.213 E.28887
G1 X30.787 Y154.787 E.57773
G1 X49.213 Y154.787 E.57773
G1 X49.213 Y164 E.28887
G1 X49.213 Y173.213 E.28887
G1 X40.03 Y173.213 E.28793
G1 X40 Y172.836 F7800
G1 F900
G1 X31.164 Y172.836 E.27705
G1 X31.164 Y155.164 E.55409
G1 X48.836 Y155.164 E.55409
G1 X48.836 Y164 E.27705
G1 X48.836 Y172.836 E.27705
G1 X40.03 Y172.836 E.27611
G1 E-6.5 F2700
G1 X40.03 Y172.836 F7800
G1 X47.953 Y155.277
G1 E6.5 F2400
;TYPE:Solid infill
;WIDTH:0.423303
G1 F900
G1 X48.553 Y155.877 E.02684
G1 X48.553 Y156.415 E.01702
G1 X47.585 Y155.447 E.0433
G1 X47.047 Y155.447 E.01702
G1 X48.553 Y156.953 E.06736
G1 X48.553 Y157.491 E.01702
G1 X46.509 Y155.447 E.09143
G1 X45.971 Y155.447 E.01702
G1 X48.553 Y158.029 E.11549
G1 X48.553 Y158.567 E.01702
G1 X45.433 Y155.447 E.13956
G1 X44.895 Y155.447 E.01702
G1 X48.553 Y159.105 E.16362
G1 X48.553 Y159.642 E.01698
G1 X44.358 Y155.447 E.18764
G1 X43.82 Y155.447 E.01702
G1 X48.553 Y160.18 E.21171
G1 X48.553 Y160.718 E.01702
G1 X43.282 Y155.447 E.23577
G1 X42.744 Y155.447 E.01702
G1 X48.553 Y161.256 E.25984
G1 X48.553 Y161.794 E.01702
G1 X42.206 Y155.447 E.2839
G1 X41.668 Y155.447 E.01702
G1 X48.553 Y162.332 E.30797
G1 X48.553 Y162.87 E.01702
G1 X41.13 Y155.447 E.33203
G1 X40.592 Y155.447 E.01702
G1 X48.553 Y163.408 E.3561
G1 X48.553 Y163.946 E.01702
G1 X40.054 Y155.447 E.38016
G1 X39.516 Y155.447 E.01702
G1 X48.553 Y164.484 E.40423
G1 X48.553 Y165.022 E.01702
G1 X38.978 Y155.447 E.42829
G1 X38.44 Y155.447 E.01702
G1 X48.553 Y165.56 E.45236
G1 X48.553 Y166.098 E.01702
G1 X37.902 Y155.447 E.47642
G1 X37.364 Y155.447 E.01702
G1 X48.553 Y166.636 E.50049
G1 X48.553 Y167.174 E.01702
G1 X36.826 Y155.447 E.52455
G1 X36.288 Y155.447 E.01702
G1 X48.553 Y167.712 E.54862
G1 X48.553 Y168.25 E.01702
G1 X35.75 Y155.447 E.57268
G1 X35.213 Y155.447 E.01698
G1 X48.553 Y168.787 E.5967
G1 X48.553 Y169.325 E.01702
G1 X34.675 Y155.447 E.62076
G1 X34.137 Y155.447 E.01702
G1 X48.553 Y169.863 E.64483
G1 X48.553 Y170.401 E.01702
G1 X33.599 Y155.447 E.66889
G1 X33.061 Y155.447 E.01702
G1 X48.553 Y170.939 E.69296
G1 X48.553 Y171.477 E.01702
G1 X32.523 Y155.447 E.71702
G1 X31.985 Y155.447 E.01702
G1 X48.553 Y172.015 E.74109
G1 X48.553 Y172.553 E.01702
G1 X31.447 Y155.447 E.76515
G1 X31.447 Y155.985 E.01702
G1 X48.015 Y172.553 E.74109
G1 X47.477 Y172.553 E.01702
G1 X31.447 Y156.523 E.71702
G1 X31.447 Y157.061 E.01702
G1 X46.939 Y172.553 E.69296
G1 X46.401 Y172.553 E.01702
G1 X31.447 Y157.599 E.66889
G1 X31.447 Y158.137 E.01702
G1 X45.863 Y172.553 E.64483
G1 X45.325 Y172.553 E.01702
G1 X31.447 Y158.675 E.62076
G1 X31.447 Y159.213 E.01702
G1 X44.787 Y172.553 E.5967
G1 X44.249 Y172.553 E.01702
G1 X31.447 Y159.751 E.57264
G1 X31.447 Y160.288 E.01698
G1 X43.712 Y172.553 E.54862
G1 X43.174 Y172.553 E.01702
G1 X31.447 Y160.826 E.52455
G1 X31.447 Y161.364 E.01702
G1 X42.636 Y172.553 E.50049
G1 X42.098 Y172.553 E.01702
G1 X31.447 Y161.902 E.47642
G1 X31.447 Y162.44 E.01702
G1 X41.56 Y172.553 E.45236
G1 X41.022 Y172.553 E.01702
G1 X31.447 Y162.978 E.42829
G1 X31.447 Y163.516 E.01702
G1 X40.484 Y172.553 E.40423
G1 X39.946 Y172.553 E.01702
G1 X31.447 Y164.054 E.38016
G1 X31.447 Y164.592 E.01702
G1 X39.408 Y172.553 E.3561
G1 X38.87 Y172.553 E.01702
G1 X31.447 Y165.13 E.33203
G1 X31.447 Y165.668 E.01702
G1 X38.332 Y172.553 E.30797
G1 X37.794 Y172.553 E.01702
G1 X31.447 Y166.206 E.2839
G1 X31.447 Y166.744 E.01702
G1 X37.256 Y172.553 E.25984
G1 X36.718 Y172.553 E.01702
G1 X31.447 Y167.282 E.23577
G1 X31.447 Y167.82 E.01702
G1 X36.18 Y172.553 E.21171
G1 X35.642 Y172.553 E.01702
G1 X31.447 Y168.358 E.18764
G1 X31.447 Y168.896 E.01702
G1 X35.104 Y172.553 E.16358
G1 X34.566 Y172.553 E.01702
G1 X31.447 Y169.434 E.13951
G1 X31.447 Y169.971 E.01698
G1 X34.029 Y172.553 E.11549
G1 X33.491 Y172.553 E.01702
G1 X31.447 Y170.509 E.09143
G1 X31.447 Y171.047 E.01702
G1 X32.953 Y172.553 E.06736
G1 X32.415 Y172.553 E.01702
G1 X31.447 Y171.585 E.0433
G1 X31.447 Y172.123 E.01702
G1 X32.046 Y172.723 E.02682
G1 E-6.5 F2700
G1 X32.046 Y172.723 F7800
G1 X40 Y120.811
G1 E6.5 F2400
;TYPE:External perimeter
;WIDTH:0.42
G1 F900
G1 X29.515 Y120.811 E.32875
;WIDTH:0.465403
G1 X29.228 Y120.772 E.01017
G1 X29.189 Y120.485 E.01017
;WIDTH:0.42
G1 X29.189 Y99.515 E.6575
;WIDTH:0.465403
G1 X29.228 Y99.228 E.01017
G1 X29.295 Y99.21 E.00244
;WIDTH:0.439854
G1 X29.363 Y99.192 E.00232
;WIDTH:0.42
G1 X50.481 Y99.189 E.66214
;WIDTH:0.46264
G1 X50.774 Y99.231 E.01033
G1 X50.811 Y99.515 E.01
;WIDTH:0.42
G1 X50.811 Y120.485 E.6575
;WIDTH:0.465402
G1 X50.772 Y120.772 E.01017
G1 X50.485 Y120.811 E.01017
;WIDTH:0.42
G1 X40.03 Y120.811 E.32781
G1 X39.83 Y120.811 F7800
G1 X40 Y121.188
G1 F900
G1 X29.501 Y121.188 E.32919
;WIDTH:0.465403
G1 X28.881 Y121.119 E.02191
G1 X28.811 Y120.492 E.02216
;WIDTH:0.42
G1 X28.812 Y99.501 E.65816
;WIDTH:0.465403
G1 X28.881 Y98.881 E.02191
G1 X29.508 Y98.811 E.02216
;WIDTH:0.419999
G1 X50.499 Y98.812 E.65816
;WIDTH:0.46264
G1 X51.12 Y98.886 E.02183
G1 X51.189 Y99.515 E.02208
;WIDTH:0.42
G1 X51.188 Y120.499 E.65794
;WIDTH:0.465402
G1 X51.119 Y121.119 E.02191
G1 X50.492 Y121.189 E.02216
;WIDTH:0.42
G1 X40.03 Y121.188 E.32803
G1 X39.83 Y121.188 F7800
G1 X40 Y119.59
;WIDTH:0.419999
G1 F900
G1 X30.41 Y119.59 E.30069
G1 X30.41 Y100.41 E.60137
G1 X49.59 Y100.41 E.60137
G1 X49.59 Y110 E.30069
G1 X49.59 Y119.59 E.30069
G1 X40.03 Y119.59 E.29975
G1 X39.83 Y119.59 F7800
G1 X40 Y119.213
;TYPE:Perimeter
G1 F900
G1 X30.787 Y119.213 E.28887
G1 X30.787 Y100.787 E.57773
G1 X49.213 Y100.787 E.57773
G1 X49.213 Y110 E.28887
G1 X49.213 Y119.213 E.28887
G1 X40.03 Y119.213 E.28793
G1 X40 Y118.836 F7800
G1 F900
G1 X31.164 Y118.836 E.27705
G1 X31.164 Y101.164 E.55409
G1 X48.836 Y101.164 E.55409
G1 X48.836 Y110 E.27705
G1 X48.836 Y118.836 E.27705
G1 X40.03 Y118.836 E.27611
G1 E-6.5 F2700
G1 X40.03 Y118.836 F7800
G1 X48.723 Y102.047
G1 E6.5 F2400
;TYPE:Solid infill
;WIDTH:0.423303
G1 F900
G1 X48.123 Y101.447 E.02684
G1 X47.585 Y101.447 E.01702
G1 X48.553 Y102.415 E.0433
G1 X48.553 Y102.953 E.01702
G1 X47.047 Y101.447 E.06736
G1 X46.509 Y101.447 E.01702
G1 X48.553 Y103.491 E.09143
G1 X48.553 Y104.029 E.01702
G1 X45.971 Y101.447 E.11549
G1 X45.433 Y101.447 E.01702
G1 X48.553 Y104.567 E.13956
G1 X48.553 Y105.105 E.01702
G1 X44.895 Y101.447 E.16362
G1 X44.358 Y101.447 E.01698
G1 X48.553 Y105.642 E.18764
G1 X48.553 Y106.18 E.01702
G1 X43.82 Y101.447 E.21171
G1 X43.282 Y101.447 E.01702
G1 X48.553 Y106.718 E.23577
G1 X48.553 Y107.256 E.01702
G1 X42.744 Y101.447 E.25984
G1 X42.206 Y101.447 E.01702
G1 X48.553 Y107.794 E.2839
G1 X48.553 Y108.332 E.01702
G1 X41.668 Y101.447 E.30797
G1 X41.13 Y101.447 E.01702
G1 X48.553 Y108.87 E.33203
G1 X48.553 Y109.408 E.01702
G1 X40.592 Y101.447 E.3561
G1 X40.054 Y101.447 E.01702
G1 X48.553 Y109.946 E.38016
G1 X48.553 Y110.484 E.01702
G1 X39.516 Y101.447 E.40423
G1 X38.978 Y101.447 E.01702
G1 X48.553 Y111.022 E.42829
G1 X48.553 Y111.56 E.01702
G1 X38.44 Y101.447 E.45236
G1 X37.902 Y101.447 E.01702
G1 X48.553 Y112.098 E.47642
G1 X48.553 Y112.636 E.01702
G1 X37.364 Y101.447 E.50049
G1 X36.826 Y101.447 E.01702
G1 X48.553 Y113.174 E.52455
G1 X48.553 Y113.712 E.01702
G1 X36.288 Y101.447 E.54862
G1 X35.75 Y101.447 E.01702
G1 X48.553 Y114.25 E.57268
G1 X48.553 Y114.787 E.01698
G1 X35.213 Y101.447 E.5967
G1 X34.675 Y101.447 E.01702
G1 X48.553 Y115.325 E.62076
G1 X48.553 Y115.863 E.01702
G1 X34.137 Y101.447 E.64483
G1 X33.599 Y101.447 E.01702
G1 X48.553 Y116.401 E.66889
G1 X48.553 Y116.939 E.01702
G1 X33.061 Y101.447 E.69296
G1 X32.523 Y101.447 E.01702
G1 X48.553 Y117.477 E.71702
G1 X48.553 Y118.015 E.01702
G1 X31.985 Y101.447 E.74109
G1 X31.447 Y101.447 E.01702
G1 X48.553 Y118.553 E.76515
G1 X48.015 Y118.553 E.01702
G1 X31.447 Y101.985 E.74109
G1 X31.447 Y102.523 E.01702
G1 X47.477 Y118.553 E.71702
G1 X46.939 Y118.553 E.01702
G1 X31.447 Y103.061 E.69296
G1 X31.447 Y103.599 E.01702
G1 X46.401 Y118.553 E.66889
G1 X45.863 Y118.553 E.01702
G1 X31.447 Y104.137 E.64483
G1 X31.447 Y104.675 E.01702
G1 X45.325 Y118.553 E.62076
G1 X44.787 Y118.553 E.01702
G1 X31.447 Y105.213 E.5967
G1 X31.447 Y105.751 E.01702
G1 X44.249 Y118.553 E.57264
G1 X43.712 Y118.553 E.01698
G1 X31.447 Y106.288 E.54862
G1 X31.447 Y106.826 E.01702
G1 X43.174 Y118.553 E.52455
G1 X42.636 Y118.553 E.01702
G1 X31.447 Y107.364 E.50049
G1 X31.447 Y107.902 E.01702
G1 X42.098 Y118.553 E.47642
G1 X41.56 Y118.553 E.01702
G1 X31.447 Y108.44 E.45236
G1 X31.447 Y108.978 E.01702
G1 X41.022 Y118.553 E.42829
G1 X40.484 Y118.553 E.01702
G1 X31.447 Y109.516 E.40423
G1 X31.447 Y110.054 E.01702
G1 X39.946 Y118.553 E.38016
G1 X39.408 Y118.553 E.01702
G1 X31.447 Y110.592 E.3561
G1 X31.447 Y111.13 E.01702
G1 X38.87 Y118.553 E.33203
G1 X38.332 Y118.553 E.01702
G1 X31.447 Y111.668 E.30797
G1 X31.447 Y112.206 E.01702
G1 X37.794 Y118.553 E.2839
G1 X37.256 Y118.553 E.01702
G1 X31.447 Y112.744 E.25984
G1 X31.447 Y113.282 E.01702
G1 X36.718 Y118.553 E.23577
G1 X36.18 Y118.553 E.01702
G1 X31.447 Y113.82 E.21171
G1 X31.447 Y114.358 E.01702
G1 X35.642 Y118.553 E.18764
G1 X35.104 Y118.553 E.01702
G1 X31.447 Y114.896 E.16358
G1 X31.447 Y115.434 E.01702
G1 X34.566 Y118.553 E.13951
G1 X34.029 Y118.553 E.01698
G1 X31.447 Y115.971 E.11549
G1 X31.447 Y116.509 E.01702
G1 X33.491 Y118.553 E.09143
G1 X32.953 Y118.553 E.01702
G1 X31.447 Y117.047 E.06736
G1 X31.447 Y117.585 E.01702
G1 X32.415 Y118.553 E.0433
G1 X31.877 Y118.553 E.01702
G1 X31.277 Y117.954 E.02682
G1 E-6.5 F2700
G1 X31.277 Y117.954 F7800
G1 X40 Y66.811
G1 E6.5 F2400
;TYPE:External perimeter
;WIDTH:0.42
G1 F900
G1 X29.515 Y66.811 E.32875
;WIDTH:0.465403
G1 X29.228 Y66.772 E.01017
G1 X29.189 Y66.485 E.01017
;WIDTH:0.42
G1 X29.189 Y45.515 E.6575
;WIDTH:0.465403
G1 X29.228 Y45.228 E.01017
G1 X29.295 Y45.21 E.00244
;WIDTH:0.439854
G1 X29.363 Y45.192 E.00232
;WIDTH:0.42
G1 X50.481 Y45.189 E.66214
;WIDTH:0.46264
G1 X50.774 Y45.231 E.01033
G1 X50.811 Y45.515 E.01
;WIDTH:0.42
G1 X50.811 Y66.485 E.6575
;WIDTH:0.465402
G1 X50.772 Y66.772 E.01017
G1 X50.485 Y66.811 E.01017
;WIDTH:0.42
G1 X40.03 Y66.811 E.32781
G1 X39.83 Y66.811 F7800
G1 X40 Y67.188
G1 F900
G1 X29.501 Y67.188 E.32919
;WIDTH:0.465403
G1 X28.881 Y67.119 E.02191
G1 X28.811 Y66.492 E.02216
;WIDTH:0.42
G1 X28.812 Y45.501 E.65816
;WIDTH:0.465403
G1 X28.881 Y44.881 E.02191
G1 X29.508 Y44.811 E.02216
;WIDTH:0.419999
G1 X50.499 Y44.812 E.65816
;WIDTH:0.46264
G1 X51.12 Y44.886 E.02183
G1 X51.189 Y45.515 E.02208
;WIDTH:0.42
G1 X51.188 Y66.499 E.65794
;WIDTH:0.465402
G1 X51.119 Y67.119 E.02191
G1 X50.492 Y67.189 E.02216
;WIDTH:0.42
G1 X40.03 Y67.188 E.32803
G1 X39.83 Y67.188 F7800
G1 X40 Y65.59
;WIDTH:0.419999
G1 F900
G1 X30.41 Y65.59 E.30069
G1 X30.41 Y46.41 E.60137
G1 X49.59 Y46.41 E.60137
G1 X49.59 Y56 E.30069
G1 X49.59 Y65.59 E.30069
G1 X40.03 Y65.59 E.29975
G1 X39.83 Y65.59 F7800
G1 X40 Y65.213
;TYPE:Perimeter
G1 F900
G1 X30.787 Y65.213 E.28887
G1 X30.787 Y46.787 E.57773
G1 X49.213 Y46.787 E.57773
G1 X49.213 Y56 E.28887
G1 X49.213 Y65.213 E.28887
G1 X40.03 Y65.213 E.28793
G1 X40 Y64.836 F7800
G1 F900
G1 X31.164 Y64.836 E.27705
G1 X31.164 Y47.164 E.55409
G1 X48.836 Y47.164 E.55409
G1 X48.836 Y56 E.27705
G1 X48.836 Y64.836 E.27705
G1 X40.03 Y64.836 E.27611
G1 E-6.5 F2700
G1 X40.03 Y64.836 F7800
G1 X47.953 Y47.277
G1 E6.5 F2400
;TYPE:Solid infill
;WIDTH:0.423303
G1 F900
G1 X48.553 Y47.877 E.02684
G1 X48.553 Y48.415 E.01702
G1 X47.585 Y47.447 E.0433
G1 X47.047 Y47.447 E.01702
G1 X48.553 Y48.953 E.06736
G1 X48.553 Y49.491 E.01702
G1 X46.509 Y47.447 E.09143
G1 X45.971 Y47.447 E.01702
G1 X48.553 Y50.029 E.11549
G1 X48.553 Y50.567 E.01702
G1 X45.433 Y47.447 E.13956
G1 X44.895 Y47.447 E.01702
G1 X48.553 Y51.105 E.16362
G1 X48.553 Y51.642 E.01698
G1 X44.358 Y47.447 E.18764
G1 X43.82 Y47.447 E.01702
G1 X48.553 Y52.18 E.21171
G1 X48.553 Y52.718 E.01702
G1 X43.282 Y47.447 E.23577
G1 X42.744 Y47.447 E.01702
G1 X48.553 Y53.256 E.25984
G1 X48.553 Y53.794 E.01702
G1 X42.206 Y47.447 E.2839
G1 X41.668 Y47.447 E.01702
G1 X48.553 Y54.332 E.30797
G1 X48.553 Y54.87 E.01702
G1 X41.13 Y47.447 E.33203
G1 X40.592 Y47.447 E.01702
G1 X48.553 Y55.408 E.3561
G1 X48.553 Y55.946 E.01702
G1 X40.054 Y47.447 E.38016
G1 X39.516 Y47.447 E.01702
G1 X48.553 Y56.484 E.40423
G1 X48.553 Y57.022 E.01702
G1 X38.978 Y47.447 E.42829
G1 X38.44 Y47.447 E.01702
G1 X48.553 Y57.56 E.45236
G1 X48.553 Y58.098 E.01702
G1 X37.902 Y47.447 E.47642
G1 X37.364 Y47.447 E.01702
G1 X48.553 Y58.636 E.50049
G1 X48.553 Y59.174 E.01702
G1 X36.826 Y47.447 E.52455
G1 X36.288 Y47.447 E.01702
G1 X48.553 Y59.712 E.54862
G1 X48.553 Y60.25 E.01702
G1 X35.75 Y47.447 E.57268
G1 X35.213 Y47.447 E.01698
G1 X48.553 Y60.787 E.5967
G1 X48.553 Y61.325 E.01702
G1 X34.675 Y47.447 E.62076
G1 X34.137 Y47.447 E.01702
G1 X48.553 Y61.863 E.64483
G1 X48.553 Y62.401 E.01702
G1 X33.599 Y47.447 E.66889
G1 X33.061 Y47.447 E.01702
G1 X48.553 Y62.939 E.69296
G1 X48.553 Y63.477 E.01702
G1 X32.523 Y47.447 E.71702
G1 X31.985 Y47.447 E.01702
G1 X48.553 Y64.015 E.74109
G1 X48.553 Y64.553 E.01702
G1 X31.447 Y47.447 E.76515
G1 X31.447 Y47.985 E.01702
G1 X48.015 Y64.553 E.74109
G1 X47.477 Y64.553 E.01702
G1 X31.447 Y48.523 E.71702
G1 X31.447 Y49.061 E.01702
G1 X46.939 Y64.553 E.69296
G1 X46.401 Y64.553 E.01702
G1 X31.447 Y49.599 E.66889
G1 X31.447 Y50.137 E.01702
G1 X45.863 Y64.553 E.64483
G1 X45.325 Y64.553 E.01702
G1 X31.447 Y50.675 E.62076
G1 X31.447 Y51.213 E.01702
G1 X44.787 Y64.553 E.5967
G1 X44.249 Y64.553 E.01702
G1 X31.447 Y51.751 E.57264
G1 X31.447 Y52.288 E.01698
G1 X43.712 Y64.553 E.54862
G1 X43.174 Y64.553 E.01702
G1 X31.447 Y52.826 E.52455
G1 X31.447 Y53.364 E.01702
